X:293
%%etbk:tnset id:91,pos:1,rep:3x,ant:
%%etbk:wsite http://www.thesession.org/tunes/display/1237
%%etbk:pldat 2013-10-21T18:19,2013-05-22T16:10
T: Yellow Wattle, The
Z: Piano Box Version by Martin Fleischmann
H: Created 2013-02-19 /  Last Modified 2013-02-19
M: 6/8
L: 1/8
R: jig
K: Dmix
|: "D"!5!dc!2!A !3!A!2!G!1!E | !3!AB!3!A !2!ABc | !5!dc!2!A ABc | !5!dc!2!A !1!G!2!E!1!D |
!5!dc!2!A !3!A!2!G!1!E | !3!ABA !3!A!2!G!1!E | !1!D !3!(3D!2!D!1!D !3!cde | !4!d!3!c!2!A !1!G!2!E!1!D:|
|: "D"!1!D !3!(3D!2!D!1!D !4!c2c | !2!AdB !4!cBc | !1!D !3!(3D!2!D!1!D !4!c2c | !5!dc!2!A !1!G!2!E!1!D |
!1!D !3!(3D!2!D!1!D !4!c2c | !2!AdB !4!cBc | !2!ABA ABc | !5!dc!2!A !1!G!2!E!1!D:|


